components/icon/svg/24/navigation_arrow-back.svg

<?xml version="1.0" encoding="UTF-8"?>
<svg width="24px" height="24px" viewBox="0 0 24 24" version="1.1" xmlns="http://www.w3.org/2000/svg" xmlns:xlink="http://www.w3.org/1999/xlink">
    <!-- Generator: Sketch 64 (93537) - https://sketch.com -->
    <title>ic-db_navigation_arrow-back_24</title>
    <desc>Created with Sketch.</desc>
    <g id="Symbols" stroke="none" stroke-width="1" fill="none" fill-rule="evenodd">
        <g id="24dp-Icon/Navigation/Arrow-Back" fill="#282D37">
            <path d="M20.0052824,12 C20.0052824,11.4375 19.5677824,11 19.0052824,11 L7.41158243,11 L11.6927824,6.7188 C11.9115824,6.5 12.0052824,6.25 12.0052824,6 C12.0052824,5.5625 11.6302824,5 10.9740824,5 C10.7240824,5 10.4740824,5.0938 10.2865824,5.2812 L4.28658243,11.2812 C4.11189671,11.4558857 4.03000283,11.6755347 4.0101696,11.8921609 L4.00528243,12 C3.97408243,12.25 4.08278243,12.515 4.28658243,12.7188 L10.2865824,18.7188 C10.4740824,18.9062 10.7552824,19 10.9740824,19 C11.5365824,19 12.0052824,18.5312 12.0052824,18 C12.0052824,17.7188 11.8965824,17.485 11.6927824,17.2812 L7.41158243,13 L19.0052824,13 C19.5677824,13 20.0052824,12.5625 20.0052824,12 Z" id="🎨-Color"></path>
        </g>
    </g>
</svg>

<svg width="24" height="24" xmlns="http://www.w3.org/2000/svg"><path d="M20.005 12c0-.563-.437-1-1-1H7.412l4.28-4.281A.998.998 0 0012.006 6c0-.438-.375-1-1.03-1a.97.97 0 00-.688.281l-6 6a.975.975 0 00-.277.611L4.005 12c-.03.25.078.515.282.719l6 6c.187.187.468.281.687.281.563 0 1.031-.469 1.031-1a.981.981 0 00-.312-.719L7.412 13h11.593c.563 0 1-.438 1-1z" fill="#282D37" fill-rule="evenodd"/></svg>
